build/img/logo.svg

<svg width="141" height="18" viewBox="0 0 141 18" fill="none" xmlns="http://www.w3.org/2000/svg">
<path d="M6.31395 7.89305H6.19104L6.46145 17.5187L0 17.5L1.00415 0.481284H8.64922L11.7957 9.64973H11.9186L14.6473 0.481284H22.5383L23.54 17.5187H16.8598L17.0318 7.94118L16.8843 7.91711L13.6394 17.5187H9.50958L6.31395 7.89305ZM25.7785 17.5187V0.481284H37.7501V5.24599H31.285V6.7139H37.3568V11.1658H31.285V12.754H38.168V17.5187H25.7785ZM49.2679 5.31818V17.5187H43.4173V5.31818H39.14V0.481284H53.5452V5.31818H49.2679ZM61.0332 18C59.6566 18 58.3128 17.7674 57.0017 17.3021C55.7071 16.8369 54.6091 16.2112 53.7077 15.4251L57.2721 11.623C57.6982 12.0883 58.2554 12.4813 58.9437 12.8021C59.632 13.123 60.3203 13.2834 61.0086 13.2834C61.8772 13.2834 62.3115 13.0187 62.3115 12.4893C62.3115 12.1845 62.123 11.9358 61.7461 11.7433C61.3692 11.5508 60.5334 11.246 59.2387 10.8289C57.8457 10.3797 56.7477 9.77811 55.9447 9.02407C55.1417 8.27005 54.7401 7.21123 54.7401 5.84759C54.7401 4.8369 54.9532 3.94652 55.3793 3.17647C55.8217 2.39038 56.4036 1.77273 57.1246 1.32353C57.8457 0.874336 58.616 0.545454 59.4353 0.336898C60.2711 0.112299 61.1398 0 62.0411 0C63.2047 0 64.3764 0.224599 65.5564 0.673797C66.7528 1.12299 67.7934 1.74065 68.6783 2.52674L65.0401 6.16043C64.6633 5.71123 64.188 5.35829 63.6143 5.1016C63.0572 4.82887 62.5327 4.69251 62.0411 4.69251C61.0906 4.69251 60.6153 4.9492 60.6153 5.46257C60.6153 5.70321 60.7301 5.8877 60.9594 6.01604C61.1889 6.12834 61.6478 6.29679 62.3361 6.52139C62.8114 6.68182 63.1883 6.81016 63.4669 6.90642C63.7455 6.98664 64.1142 7.123 64.5731 7.31551C65.0484 7.50802 65.4253 7.69251 65.7039 7.86899C65.9989 8.04546 66.3184 8.27808 66.6626 8.56685C67.0232 8.85562 67.3017 9.15241 67.4984 9.45722C67.695 9.762 67.859 10.131 67.99 10.5642C68.1375 10.9813 68.2113 11.4305 68.2113 11.9118C68.2113 13.8369 67.4984 15.3369 66.0726 16.4118C64.6468 17.4706 62.9671 18 61.0332 18ZM81.1216 17.5187V11.0455H76.3526V17.5187H70.502V0.481284H76.328V6.25669H81.097V0.481284H86.9722V17.5187H81.1216ZM90.2112 17.5187V0.481284H97.7088C98.6265 0.481284 99.4787 0.569519 100.265 0.745989C101.052 0.922464 101.79 1.21123 102.478 1.6123C103.182 2.01337 103.731 2.59091 104.125 3.34492C104.535 4.08289 104.74 4.97326 104.74 6.01604C104.74 7.04278 104.469 7.95722 103.928 8.75936C103.404 9.5615 102.658 10.1791 101.691 10.6123L106.116 17.5187H99.3804L96.0372 11.4305H95.8651V17.5187H90.2112ZM95.8159 4.93316V7.67647H96.9713C98.3315 7.67647 99.0116 7.20321 99.0116 6.25669C99.0116 5.37434 98.4134 4.93316 97.2171 4.93316H95.8159ZM106.973 8.90374C106.973 6.2246 107.882 4.07487 109.701 2.45455C111.52 0.818182 113.831 0 116.633 0C119.436 0 121.747 0.818182 123.566 2.45455C125.402 4.07487 126.319 6.2246 126.319 8.90374C126.319 11.5989 125.402 13.7888 123.566 15.4733C121.73 17.1578 119.42 18 116.633 18C113.848 18 111.537 17.1578 109.701 15.4733C107.882 13.7888 106.973 11.5989 106.973 8.90374ZM113.192 8.90374C113.192 10.0107 113.512 10.9251 114.151 11.6471C114.806 12.353 115.634 12.7059 116.633 12.7059C117.617 12.7059 118.436 12.353 119.092 11.6471C119.748 10.9251 120.075 10.0107 120.075 8.90374C120.075 7.81283 119.748 6.93048 119.092 6.25669C118.453 5.58289 117.634 5.24599 116.633 5.24599C115.634 5.24599 114.806 5.58289 114.151 6.25669C113.512 6.93048 113.192 7.81283 113.192 8.90374ZM136.723 5.31818V17.5187H130.872V5.31818H126.595V0.481284H141V5.31818H136.723Z" fill="#130F10"/>
</svg>

<svg width="141" height="18" viewBox="0 0 141 18" fill="none" xmlns="http://www.w3.org/2000/svg"><path d="M6.314 7.893H6.19l.27 9.626L0 17.5 1.004.481H8.65l3.147 9.169h.123L14.647.48h7.891l1.002 17.04h-6.68l.172-9.578-.148-.024-3.245 9.602H9.51L6.315 7.893zm19.465 9.626V.48H37.75v4.765h-6.465v1.468h6.072v4.452h-6.072v1.588h6.883v4.765h-12.39zm23.489-12.2v12.2h-5.85v-12.2H39.14V.48h14.405v4.837h-4.277zM61.033 18a11.97 11.97 0 01-4.031-.698c-1.295-.465-2.393-1.09-3.294-1.877l3.564-3.802c.426.465.983.858 1.672 1.18.688.32 1.376.48 2.065.48.868 0 1.303-.264 1.303-.794 0-.305-.189-.553-.566-.746-.377-.192-1.213-.497-2.507-.914-1.393-.45-2.491-1.05-3.294-1.805-.803-.754-1.205-1.813-1.205-3.176 0-1.011.213-1.901.64-2.672a5.06 5.06 0 011.745-1.852 8.146 8.146 0 012.31-.987A9.998 9.998 0 0162.041 0c1.164 0 2.335.225 3.515.674 1.197.449 2.237 1.067 3.122 1.853L65.04 6.16a3.916 3.916 0 00-1.426-1.058c-.557-.273-1.081-.41-1.573-.41-.95 0-1.426.257-1.426.77 0 .241.115.426.344.554.23.112.689.28 1.377.505.475.16.852.29 1.13.385.28.08.648.217 1.107.41a7.23 7.23 0 011.13.553c.296.176.615.41.96.698.36.289.639.585.835.89.197.305.361.674.492 1.107.148.417.221.867.221 1.348 0 1.925-.713 3.425-2.138 4.5C64.647 17.47 62.967 18 61.033 18zm20.089-.481v-6.473h-4.77v6.473h-5.85V.48h5.826v5.776h4.769V.48h5.875v17.04h-5.85zm9.09 0V.48h7.497c.917 0 1.77.089 2.556.265a7.723 7.723 0 012.213.866 4.159 4.159 0 011.647 1.733c.41.738.615 1.628.615 2.671 0 1.027-.271 1.941-.812 2.743-.524.803-1.27 1.42-2.237 1.853l4.425 6.907H99.38l-3.343-6.088h-.172v6.088h-5.654zm5.604-12.586v2.743h1.155c1.36 0 2.04-.473 2.04-1.42 0-.882-.598-1.323-1.794-1.323h-1.401zm11.157 3.97c0-2.678.909-4.828 2.728-6.448C111.52.818 113.831 0 116.633 0c2.803 0 5.114.818 6.933 2.455 1.836 1.62 2.753 3.77 2.753 6.449 0 2.695-.917 4.885-2.753 6.57C121.73 17.157 119.42 18 116.633 18c-2.785 0-5.096-.842-6.932-2.527-1.819-1.684-2.728-3.874-2.728-6.57zm6.219 0c0 1.108.32 2.022.959 2.744.655.706 1.483 1.059 2.482 1.059.984 0 1.803-.353 2.459-1.059.656-.722.983-1.636.983-2.743 0-1.091-.327-1.974-.983-2.647-.639-.674-1.458-1.011-2.459-1.011-.999 0-1.827.337-2.482 1.01-.639.674-.959 1.557-.959 2.648zm23.531-3.585v12.2h-5.851v-12.2h-4.277V.481H141v4.837h-4.277z" fill="#130F10"/></svg>
